client/public/assets/icons/utility/quote.svg

<?xml version="1.0"?><svg xmlns="http://www.w3.org/2000/svg" width="52" height="52" viewBox="0 0 52 52"><path fill="#fff" d="m45.2 2.1h-17.5c-1.1-0.1-2.1 0.5-2.9 1.3l-21.4 21.5c-1.8 1.8-1.8 4.9 0 6.8l17 17c1.8 1.8 4.9 1.8 6.8 0l21.7-21.8c0.8-0.8 1.3-2.1 1.2-3.2v-16.8c-0.1-2.6-2.3-4.8-4.9-4.8z m-17.3 35.2l-1.1 1.1c-0.6 0.6-1.6 0.6-2.2 0l-10.9-10.8c-0.6-0.6-0.6-1.6 0-2.2l1.1-1.1c0.6-0.6 1.6-0.6 2.2 0l10.9 10.9c0.7 0.5 0.7 1.5 0 2.1z m6.4-6.4l-1.1 1.1c-0.6 0.6-1.6 0.6-2.2 0l-10.9-10.8c-0.6-0.6-0.6-1.6 0-2.2l1.1-1.1c0.6-0.6 1.6-0.6 2.2 0l10.9 10.9c0.7 0.5 0.7 1.5 0 2.1z m4.5-13.6c-2.2 0-4-1.8-4-4s1.8-4 4-4 4 1.8 4 4-1.8 4-4 4z"></path></svg>

<?xml version="1.0" encoding="utf-8"?>
<!-- Generator: Adobe Illustrator 21.1.0, SVG Export Plug-In . SVG Version: 6.00 Build 0)  -->
<svg version="1.1" id="Layer_1" xmlns="http://www.w3.org/2000/svg" xmlns:xlink="http://www.w3.org/1999/xlink" x="0px" y="0px"
	 width="52px" height="52px" viewBox="0 0 52 52" enable-background="new 0 0 52 52" xml:space="preserve">
<path fill="#FFFFFF" d="M45.2,2.1H27.7c-1.1-0.1-2.1,0.5-2.9,1.3L3.4,24.9c-1.8,1.8-1.8,4.9,0,6.8l17,17c1.8,1.8,4.9,1.8,6.8,0
	l21.7-21.8c0.8-0.8,1.3-2.1,1.2-3.2V6.9C50,4.3,47.8,2.1,45.2,2.1z M27.9,37.3l-1.1,1.1c-0.6,0.6-1.6,0.6-2.2,0L13.7,27.6
	c-0.6-0.6-0.6-1.6,0-2.2l1.1-1.1c0.6-0.6,1.6-0.6,2.2,0l10.9,10.9C28.6,35.7,28.6,36.7,27.9,37.3z M34.3,30.9L33.2,32
	c-0.6,0.6-1.6,0.6-2.2,0L20.1,21.2c-0.6-0.6-0.6-1.6,0-2.2l1.1-1.1c0.6-0.6,1.6-0.6,2.2,0l10.9,10.9C35,29.3,35,30.3,34.3,30.9z
	 M38.8,17.3c-2.2,0-4-1.8-4-4s1.8-4,4-4s4,1.8,4,4S41,17.3,38.8,17.3z"/>
</svg>
